X:0108
M:6/8
L:1/8
Q:3/8=108
K:E Minor
z|E2B B2A|G2G AGF|E2B  B2A|   G2A  B2||
  BG2 AF2|G2E FED|E2B  B2A|   G2F  E2
d|g2g g2g|G2G AGA|B>cB B2A|   G2F  E2|]

